images/course-border1.svg

<svg width="627" height="264" viewBox="0 0 627 264" fill="none" xmlns="http://www.w3.org/2000/svg">
<path d="M233.524 40.7466C208.988 16.2786 174.158 1 135.524 1C61.2284 1 1 57.5025 1 127.202C1 196.901 61.2284 253.404 135.524 253.404C168.941 253.404 199.512 241.973 223.037 223.052" stroke="black" stroke-dasharray="10 10"/>
<path d="M400.882 33.885C378.934 19.127 352.06 10.4434 323.031 10.4434C289.039 10.4434 258.001 22.3505 234.369 41.9754M400.882 239.406C378.934 254.164 352.06 262.847 323.031 262.847C284.146 262.847 249.127 247.266 224.637 222.374" stroke="black" stroke-dasharray="10 10"/>
<path d="M400.141 34.1282C423.562 19.2224 452.298 10.4434 483.352 10.4434C562.134 10.4434 626 66.9459 626 136.645C626 206.345 562.134 262.847 483.352 262.847C452.298 262.847 423.562 254.068 400.141 239.162" stroke="black" stroke-dasharray="10 10"/>
</svg>

<svg width="627" height="264" fill="none" xmlns="http://www.w3.org/2000/svg"><path d="M233.524 40.747C208.988 16.279 174.158 1 135.524 1 61.228 1 1 57.502 1 127.202c0 69.699 60.228 126.202 134.524 126.202 33.417 0 63.988-11.431 87.513-30.352M400.882 33.885c-21.948-14.758-48.822-23.442-77.851-23.442-33.992 0-65.03 11.908-88.662 31.532m166.513 197.431c-21.948 14.758-48.822 23.441-77.851 23.441-38.885 0-73.904-15.581-98.394-40.473" stroke="#000" stroke-dasharray="10 10"/><path d="M400.141 34.128c23.421-14.906 52.157-23.685 83.211-23.685C562.134 10.443 626 66.946 626 136.645c0 69.7-63.866 126.202-142.648 126.202-31.054 0-59.79-8.779-83.211-23.685" stroke="#000" stroke-dasharray="10 10"/></svg>
